src/icons/webcam-hide.svg

<svg xmlns="http://www.w3.org/2000/svg" width="512" height="512" viewBox="0 0 512 512">
    <path d="M86.6 179.4c-.9 3.7-.6 7.7-.6 11.6v142.1c0 14.8 9.5 24.4 24.2 24.5 30.5.1 61 0 91.5 0 30.8.1 59.2.1 90 0 9.9 0-174.1-195.9-174.1-195.9-10.1 0-4 .1-8.4.1-11.4.2-20.3 7.2-22.6 17.6zm205-17.7h-87.1l113.6 121.1v-95.1c0-16.9-9.5-26-26.5-26zm134.3 97.9v-75.1c0-7.8-5.2-11.3-11.7-7.7-23.5 13.3-47 26.7-70.6 39.8-3.8 2.1-5.4 5-5.4 9.4.1 22.5.1 45.1 0 67.5 0 4 1.6 6.7 5.1 8.6 23.4 13.2 46.8 26.5 70.1 39.6 7.2 4 12.4 1.1 12.4-7.2.2-24.7.2-49.8.1-74.9m-69 133L109.3 123.1l16.8-16.7 247.6 269.5-16.8 16.7z"/>
</svg>

<?xml version="1.0" encoding="UTF-8"?>
<svg width="512px" height="512px" viewBox="0 0 512 512" version="1.1" xmlns="http://www.w3.org/2000/svg" xmlns:xlink="http://www.w3.org/1999/xlink">
    <!-- Generator: Sketch 62 (91390) - https://sketch.com -->
    <title>webcam-hide</title>
    <desc>Created with Sketch.</desc>
    <g id="webcam-hide" stroke="none" stroke-width="1" fill="none" fill-rule="evenodd">
        <path d="M86.6,179.4 C85.7,183.1 86,187.1 86,191 L86,333.1 C86,347.9 95.5,357.5 110.2,357.6 C140.7,357.7 171.2,357.6 201.7,357.6 C232.5,357.7 260.9,357.7 291.7,357.6 C301.6,357.6 117.6,161.7 117.6,161.7 C107.5,161.7 113.6,161.8 109.2,161.8 C97.8,162 88.9,169 86.6,179.4 Z M291.6,161.7 L204.5,161.7 L318.1,282.8 L318.1,187.7 C318.1,170.8 308.6,161.7 291.6,161.7 Z M425.9,259.6 L425.9,184.5 C425.9,176.7 420.7,173.2 414.2,176.8 C390.7,190.1 367.2,203.5 343.6,216.6 C339.8,218.7 338.2,221.6 338.2,226 C338.3,248.5 338.3,271.1 338.2,293.5 C338.2,297.5 339.8,300.2 343.3,302.1 C366.7,315.3 390.1,328.6 413.4,341.7 C420.6,345.7 425.8,342.8 425.8,334.5 C426,309.8 426,284.7 425.9,259.6 M356.9,392.6 L109.3,123.1 L126.1,106.4 L373.7,375.9 L356.9,392.6 L356.9,392.6 Z" id="Shape" fill="#000000" fill-rule="nonzero"></path>
    </g>
</svg>
